X:1
T:Mango Walk
M:4/4
L:1/4
K:G
 d| d/2e/2 d/2c/2 B/2c/2 B/2A/2| G/2 B D/2 G B| A/2 c D/2 F A| G/2 B D/2 G|\
 d| d/2e/2 d/2c/2 B/2c/2 B/2A/2| G/2 B D/2 G B| A/2 c D/2 F A| G G2|\
 D| D D E F| G/2 B D/2 G B| A/2 c D/2 F A| G B2| D| D D E F| G/2 B D/2 G B|\
 A/2 c D/2 F A| G G2||
